assets/images/breadcrumbs-img.svg

<svg width="1599" height="220" viewBox="0 0 1599 220" fill="none" xmlns="http://www.w3.org/2000/svg">
<path d="M1599 -232.208H-0.999756V452.86H1599V-232.208Z" fill="#E48717"/>
<g opacity="0.5">
<path d="M1884.48 455.536H534.55L818.181 -232.208L1884.48 -232.208V455.536Z" fill="#FF9B01"/>
<path d="M888.664 -239.089H836.363L551.582 452.982H603.887L888.664 -239.089Z" fill="#E07F09" fill-opacity="0.9"/>
<path d="M883.463 -239.089H888.664L603.888 452.982H598.684L883.463 -239.089Z" fill="#E07F09" fill-opacity="0.9"/>
<path d="M837.617 -239.089H836.363L551.582 452.982H552.836L837.617 -239.089Z" fill="#C8500D" fill-opacity="0.6"/>
<path d="M841.881 -239.089H840.627L555.849 452.982H557.104L841.881 -239.089Z" fill="#C8500D" fill-opacity="0.6"/>
<path d="M846.151 -239.089H844.897L560.115 452.982H561.371L846.151 -239.089Z" fill="#C8500D" fill-opacity="0.6"/>
<path d="M850.416 -239.089H849.162L564.383 452.982H565.639L850.416 -239.089Z" fill="#C8500D" fill-opacity="0.6"/>
<path d="M854.686 -239.089H853.432L568.65 452.982H569.905L854.686 -239.089Z" fill="#C8500D" fill-opacity="0.6"/>
<path d="M858.95 -239.089H857.696L572.917 452.982H574.172L858.95 -239.089Z" fill="#C8500D" fill-opacity="0.6"/>
<path d="M863.222 -239.089H861.968L577.186 452.982H578.441L863.222 -239.089Z" fill="#C8500D" fill-opacity="0.6"/>
<path d="M1374.78 -239.089H1102.59L817.809 452.983H1090.01L1374.78 -239.089Z" fill="#E07F09" fill-opacity="0.9"/>
<path d="M1075.29 -239.089H888.258L603.478 452.982H790.517L1075.29 -239.089Z" fill="#E07F09" fill-opacity="0.9"/>
<path d="M1461.06 -239.089H1384.74L1099.97 452.983H1176.29L1461.06 -239.089Z" fill="#E07F09" fill-opacity="0.9"/>
<path d="M1219.09 452.983H1217.84L1330.49 179.227V182.277L1219.09 452.983Z" fill="#C8500D" fill-opacity="0.6"/>
<path d="M1223.36 452.982H1222.11L1330.49 189.597V192.647L1223.36 452.982Z" fill="#C8500D" fill-opacity="0.6"/>
<path d="M1227.73 452.983H1226.48L1339.13 179.227V182.277L1227.73 452.983Z" fill="#C8500D" fill-opacity="0.6"/>
<path d="M1232 452.982H1230.74L1339.13 189.597V192.647L1232 452.982Z" fill="#C8500D" fill-opacity="0.6"/>
<path d="M338.908 -239.089H342.472L-61.8889 743.402H-65.4531L338.908 -239.089Z" fill="#D36611"/>
<path d="M326.788 -239.089H330.353L-74.008 743.402H-77.5725L326.788 -239.089Z" fill="#D36611"/>
<path d="M314.67 -239.089H318.235L-86.1264 743.402H-89.6908L314.67 -239.089Z" fill="#D36611"/>
<path d="M302.552 -239.089H306.116L-98.2447 743.402H-101.809L302.552 -239.089Z" fill="#D36611"/>
<path d="M290.435 -239.089H293.999L-110.362 743.402H-113.926L290.435 -239.089Z" fill="#D36611"/>
<path d="M278.316 -239.089H281.88L-122.481 743.402H-126.045L278.316 -239.089Z" fill="#D36611"/>
<path d="M266.197 -239.089H269.762L-134.599 743.402H-138.163L266.197 -239.089Z" fill="#D36611"/>
<path d="M254.078 -239.089H257.642L-146.719 743.402H-150.282L254.078 -239.089Z" fill="#D36611"/>
<path d="M241.96 -239.089H245.524L-158.837 743.402H-162.401L241.96 -239.089Z" fill="#D36611"/>
<path d="M229.843 -239.089H233.407L-170.954 743.402H-174.518L229.843 -239.089Z" fill="#D36611"/>
<path d="M217.724 -239.089H221.288L-183.072 743.402H-186.636L217.724 -239.089Z" fill="#D36611"/>
<path d="M205.605 -239.089H209.169L-195.191 743.402H-198.756L205.605 -239.089Z" fill="#D36611"/>
<path d="M193.488 -239.089H197.052L-207.309 743.402H-210.873L193.488 -239.089Z" fill="#D36611"/>
<path d="M181.367 -239.089H184.932L-219.429 743.402H-222.994L181.367 -239.089Z" fill="#D36611"/>
<path d="M169.251 -239.089H172.816L-231.545 743.402H-235.11L169.251 -239.089Z" fill="#D36611"/>
<path d="M157.133 -239.089H160.697L-243.664 743.402H-247.228L157.133 -239.089Z" fill="#D36611"/>
<path d="M145.015 -239.089H148.579L-255.782 743.402H-259.346L145.015 -239.089Z" fill="#D36611"/>
<path d="M132.896 -239.089H136.461L-267.9 743.402H-271.465L132.896 -239.089Z" fill="#D36611"/>
<path d="M120.778 -239.089H124.342L-280.019 743.402H-283.583L120.778 -239.089Z" fill="#D36611"/>
<path d="M108.658 -239.089H112.223L-292.138 743.402H-295.703L108.658 -239.089Z" fill="#D36611"/>
<path d="M96.5411 -239.089H100.106L-304.255 743.402H-307.82L96.5411 -239.089Z" fill="#D36611"/>
<path d="M84.422 -239.089H87.9864L-316.375 743.402H-319.938L84.422 -239.089Z" fill="#D36611"/>
<path d="M72.3039 -239.089H75.8681L-328.493 743.402H-332.057L72.3039 -239.089Z" fill="#D36611"/>
<path d="M60.1857 -239.089H63.7499L-340.611 743.402H-344.175L60.1857 -239.089Z" fill="#D36611"/>
<path d="M48.0674 -239.089H51.6315L-352.73 743.402H-356.293L48.0674 -239.089Z" fill="#D36611"/>
<path d="M35.9491 -239.089H39.5133L-364.848 743.402H-368.411L35.9491 -239.089Z" fill="#D36611"/>
<path d="M23.8307 -239.089H27.3949L-376.966 743.402H-380.53L23.8307 -239.089Z" fill="#D36611"/>
<path d="M11.7113 -239.089H15.2755L-389.085 743.402H-392.649L11.7113 -239.089Z" fill="#D36611"/>
<path d="M-0.407067 -239.089H3.15714L-401.203 743.402H-404.768L-0.407067 -239.089Z" fill="#D36611"/>
<path d="M485.329 38.4551H484.074L199.294 730.527H200.549L485.329 38.4551Z" fill="#D36611"/>
<path d="M489.597 38.4551H488.342L203.563 730.527H204.818L489.597 38.4551Z" fill="#D36611"/>
<path d="M493.866 38.4551H492.611L207.832 730.527H209.087L493.866 38.4551Z" fill="#D36611"/>
<path d="M498.132 38.4551H496.878L212.098 730.527H213.353L498.132 38.4551Z" fill="#D36611"/>
<path d="M502.4 38.4551H501.145L216.365 730.527H217.621L502.4 38.4551Z" fill="#D36611"/>
<path d="M506.667 38.4551H505.412L220.632 730.527H221.888L506.667 38.4551Z" fill="#D36611"/>
<path d="M510.934 38.4551H509.678L224.899 730.527H226.154L510.934 38.4551Z" fill="#D36611"/>
<path d="M515.202 38.4551H513.947L229.168 730.527H230.423L515.202 38.4551Z" fill="#D36611"/>
<path d="M519.47 38.4551H518.214L233.435 730.527H234.69L519.47 38.4551Z" fill="#D36611"/>
<path d="M523.735 38.4551H522.48L237.701 730.527H238.955L523.735 38.4551Z" fill="#D36611"/>
<path d="M528.002 38.4551H526.747L241.968 730.527H243.223L528.002 38.4551Z" fill="#D36611"/>
<path d="M532.271 38.4551H531.016L246.236 730.527H247.492L532.271 38.4551Z" fill="#D36611"/>
<path d="M536.539 38.4551H535.284L250.504 730.527H251.76L536.539 38.4551Z" fill="#D36611"/>
<path d="M438.391 38.4551H437.136L152.356 730.527H153.612L438.391 38.4551Z" fill="#D36611"/>
<path d="M442.658 38.4551H441.403L156.623 730.527H157.879L442.658 38.4551Z" fill="#D36611"/>
<path d="M446.925 38.4551H445.67L160.891 730.527H162.146L446.925 38.4551Z" fill="#D36611"/>
<path d="M451.192 38.4551H449.937L165.157 730.527H166.412L451.192 38.4551Z" fill="#D36611"/>
<path d="M455.459 38.4551H454.203L169.424 730.527H170.679L455.459 38.4551Z" fill="#D36611"/>
<path d="M459.727 38.4551H458.472L173.693 730.527H174.948L459.727 38.4551Z" fill="#D36611"/>
<path d="M463.995 38.4551H462.74L177.961 730.527H179.216L463.995 38.4551Z" fill="#D36611"/>
<path d="M468.262 38.4551H467.007L182.228 730.527H183.483L468.262 38.4551Z" fill="#D36611"/>
<path d="M472.53 38.4551H471.275L186.495 730.527H187.751L472.53 38.4551Z" fill="#D36611"/>
<path d="M476.797 38.4551H475.541L190.762 730.527H192.018L476.797 38.4551Z" fill="#D36611"/>
<path d="M481.064 38.4551H479.808L195.029 730.527H196.284L481.064 38.4551Z" fill="#D36611"/>
<path d="M485.329 38.4551H484.074L199.294 730.527H200.549L485.329 38.4551Z" fill="#D36611"/>
<path d="M489.597 38.4551H488.342L203.563 730.527H204.818L489.597 38.4551Z" fill="#D36611"/>
<path d="M587.745 38.4551H586.491L301.711 730.527H302.966L587.745 38.4551Z" fill="#D36611"/>
<path d="M592.013 38.4551H590.758L305.978 730.527H307.234L592.013 38.4551Z" fill="#D36611"/>
<path d="M596.28 38.4551H595.025L310.245 730.527H311.501L596.28 38.4551Z" fill="#D36611"/>
<path d="M600.55 38.4551H599.294L314.515 730.527H315.77L600.55 38.4551Z" fill="#D36611"/>
<path d="M604.815 38.4551H603.56L318.781 730.527H320.036L604.815 38.4551Z" fill="#D36611"/>
<path d="M609.082 38.4551H607.826L323.047 730.527H324.302L609.082 38.4551Z" fill="#D36611"/>
<path d="M613.35 38.4551H612.095L327.316 730.527H328.57L613.35 38.4551Z" fill="#D36611"/>
<path d="M617.616 38.4551H616.362L331.583 730.527H332.837L617.616 38.4551Z" fill="#D36611"/>
<path d="M621.884 38.4551H620.629L335.849 730.527H337.105L621.884 38.4551Z" fill="#D36611"/>
<path d="M626.153 38.4551H624.898L340.118 730.527H341.374L626.153 38.4551Z" fill="#D36611"/>
<path d="M630.42 38.4551H629.164L344.385 730.527H345.641L630.42 38.4551Z" fill="#D36611"/>
<path d="M634.687 38.4551H633.431L348.652 730.527H349.907L634.687 38.4551Z" fill="#D36611"/>
<path d="M638.953 38.4551H637.698L352.919 730.527H354.173L638.953 38.4551Z" fill="#D36611"/>
<path d="M540.806 38.4551H539.55L254.771 730.527H256.026L540.806 38.4551Z" fill="#D36611"/>
<path d="M545.075 38.4551H543.819L259.04 730.527H260.295L545.075 38.4551Z" fill="#D36611"/>
<path d="M549.342 38.4551H548.086L263.307 730.527H264.562L549.342 38.4551Z" fill="#D36611"/>
<path d="M553.607 38.4551H552.353L267.573 730.527H268.828L553.607 38.4551Z" fill="#D36611"/>
<path d="M557.875 38.4551H556.62L271.841 730.527H273.096L557.875 38.4551Z" fill="#D36611"/>
<path d="M562.142 38.4551H560.887L276.107 730.527H277.363L562.142 38.4551Z" fill="#D36611"/>
<path d="M566.411 38.4551H565.156L280.376 730.527H281.632L566.411 38.4551Z" fill="#D36611"/>
<path d="M570.679 38.4551H569.423L284.644 730.527H285.9L570.679 38.4551Z" fill="#D36611"/>
<path d="M574.945 38.4551H573.689L288.91 730.527H290.165L574.945 38.4551Z" fill="#D36611"/>
<path d="M579.212 38.4551H577.957L293.178 730.527H294.432L579.212 38.4551Z" fill="#D36611"/>
<path d="M583.478 38.4551H582.223L297.444 730.527H298.699L583.478 38.4551Z" fill="#D36611"/>
<path d="M587.745 38.4551H586.491L301.711 730.527H302.966L587.745 38.4551Z" fill="#D36611"/>
<path d="M592.013 38.4551H590.758L305.978 730.527H307.234L592.013 38.4551Z" fill="#D36611"/>
<g opacity="0.6">
<path d="M1441.87 -661.14H1439.41L879.037 700.662H881.508L1441.87 -661.14Z" fill="#C8500D"/>
<path d="M1450.27 -661.14H1447.8L887.431 700.662H889.902L1450.27 -661.14Z" fill="#C8500D"/>
<path d="M1458.67 -661.14H1456.2L895.834 700.662H898.298L1458.67 -661.14Z" fill="#C8500D"/>
<path d="M1467.06 -661.14H1464.59L904.228 700.662H906.699L1467.06 -661.14Z" fill="#C8500D"/>
<path d="M1475.46 -661.14H1472.99L912.622 700.662H915.093L1475.46 -661.14Z" fill="#C8500D"/>
<path d="M1483.86 -661.14H1481.39L921.017 700.662H923.489L1483.86 -661.14Z" fill="#C8500D"/>
<path d="M1492.25 -661.14H1489.78L929.418 700.662H931.89L1492.25 -661.14Z" fill="#C8500D"/>
</g>
<g opacity="0.6">
<path d="M1499.93 -661.14H1497.46L937.097 700.662H939.568L1499.93 -661.14Z" fill="#C8500D"/>
<path d="M1508.32 -661.14H1505.86L945.491 700.662H947.962L1508.32 -661.14Z" fill="#C8500D"/>
<path d="M1516.73 -661.14H1514.26L953.886 700.662H956.358L1516.73 -661.14Z" fill="#C8500D"/>
<path d="M1525.12 -661.14H1522.65L962.288 700.662H964.752L1525.12 -661.14Z" fill="#C8500D"/>
<path d="M1533.52 -661.14H1531.05L970.683 700.662H973.154L1533.52 -661.14Z" fill="#C8500D"/>
<path d="M1541.92 -661.14H1539.45L979.078 700.662H981.549L1541.92 -661.14Z" fill="#C8500D"/>
<path d="M1550.31 -661.14H1547.84L987.48 700.662H989.944L1550.31 -661.14Z" fill="#C8500D"/>
</g>
<path d="M1888.91 -239.089H1469.21L1184.43 452.983H1604.13L1888.91 -239.089Z" fill="#E07F09" fill-opacity="0.9"/>
<path opacity="0.6" fill-rule="evenodd" clip-rule="evenodd" d="M1319.34 213.674H1318.09L1579.9 -422.589H1581.16L1319.34 213.674ZM1323.61 213.674H1322.36L1584.17 -422.589H1585.43L1323.61 213.674ZM1327.88 213.674H1326.62L1588.44 -422.589H1589.7L1327.88 213.674ZM1332.15 213.674H1330.89L1592.71 -422.589H1593.96L1332.15 213.674ZM1336.41 213.674H1335.16L1596.97 -422.589H1598.23L1336.41 213.674ZM1340.68 213.674H1339.43L1601.24 -422.589H1602.5L1340.68 213.674ZM1344.95 213.674H1343.69L1605.51 -422.589H1606.76L1344.95 213.674ZM1349.22 213.674H1347.96L1609.78 -422.589H1611.03L1349.22 213.674ZM1353.48 213.674H1352.23L1614.04 -422.589H1615.29L1353.48 213.674ZM1357.75 213.674H1356.49L1618.31 -422.589H1619.57L1357.75 213.674ZM1362.02 213.674H1360.76L1622.57 -422.589H1623.83L1362.02 213.674ZM1366.29 213.674H1365.03L1626.85 -422.589H1628.1L1366.29 213.674ZM1370.55 213.674H1369.3L1631.11 -422.589H1632.36L1370.55 213.674ZM1374.82 213.674H1373.56L1635.38 -422.589H1636.63L1374.82 213.674ZM1379.09 213.674H1377.83L1639.64 -422.589H1640.9L1379.09 213.674ZM1383.36 213.674H1382.1L1643.92 -422.589H1645.17L1383.36 213.674ZM1387.62 213.674H1386.37L1648.18 -422.589H1649.43L1387.62 213.674ZM1391.89 213.674H1390.63L1652.45 -422.589H1653.7L1391.89 213.674ZM1396.16 213.674H1394.9L1656.71 -422.589H1657.97L1396.16 213.674ZM1400.42 213.674H1399.17L1660.99 -422.589H1662.24L1400.42 213.674ZM1404.69 213.674H1403.44L1665.25 -422.589H1666.5L1404.69 213.674ZM1408.95 213.674H1407.7L1669.52 -422.589H1670.77L1408.95 213.674ZM1413.23 213.674H1411.97L1673.78 -422.589H1675.04L1413.23 213.674ZM1417.49 213.674H1416.23L1678.05 -422.589H1679.31L1417.49 213.674ZM1421.76 213.674H1420.51L1682.32 -422.589H1683.57L1421.76 213.674ZM1426.02 213.674H1424.77L1686.59 -422.589H1687.84L1426.02 213.674ZM1430.29 213.674H1429.04L1690.85 -422.589H1692.11L1430.29 213.674ZM1434.56 213.674H1433.3L1695.12 -422.589H1696.38L1434.56 213.674ZM1438.83 213.674H1437.58L1699.39 -422.589H1700.64L1438.83 213.674ZM1443.09 213.674H1441.84L1703.66 -422.589H1704.91L1443.09 213.674ZM1447.36 213.674H1446.11L1707.92 -422.589H1709.18L1447.36 213.674ZM1451.63 213.674H1450.37L1712.19 -422.589H1713.45L1451.63 213.674ZM1455.9 213.674H1454.65L1716.46 -422.589H1717.71L1455.9 213.674ZM1460.16 213.674H1458.91L1720.72 -422.589H1721.98L1460.16 213.674ZM1464.43 213.674H1463.18L1724.99 -422.589H1726.25L1464.43 213.674ZM1468.7 213.674H1467.44L1729.26 -422.589H1730.52L1468.7 213.674ZM1472.97 213.674H1471.71L1733.53 -422.589H1734.78L1472.97 213.674ZM1477.23 213.674H1475.98L1737.79 -422.589H1739.05L1477.23 213.674ZM1481.5 213.674H1480.25L1742.06 -422.589H1743.32L1481.5 213.674ZM1485.77 213.674H1484.51L1746.33 -422.589H1747.59L1485.77 213.674ZM1490.04 213.674H1488.78L1750.6 -422.589H1751.85L1490.04 213.674ZM1494.3 213.674H1493.05L1754.86 -422.589H1756.11L1494.3 213.674ZM1498.57 213.674H1497.32L1759.13 -422.589H1760.39L1498.57 213.674Z" fill="#C8500D"/>
</g>
</svg>

<svg width="1599" height="220" fill="none" xmlns="http://www.w3.org/2000/svg"><path d="M1599-232.208H-1V452.86h1600v-685.068Z" fill="#E48717"/><g opacity=".5"><path d="M1884.48 455.536H534.55l283.631-687.744H1884.48v687.744Z" fill="#FF9B01"/><path d="M888.664-239.089h-52.301L551.582 452.982h52.305l284.777-692.071Z" fill="#E07F09" fill-opacity=".9"/><path d="M883.463-239.089h5.201L603.888 452.982h-5.204l284.779-692.071Z" fill="#E07F09" fill-opacity=".9"/><path d="M837.617-239.089h-1.254L551.582 452.982h1.254l284.781-692.071ZM841.881-239.089h-1.254L555.849 452.982h1.255l284.777-692.071ZM846.151-239.089h-1.254L560.115 452.982h1.256l284.78-692.071ZM850.416-239.089h-1.254L564.383 452.982h1.256l284.777-692.071ZM854.686-239.089h-1.254L568.65 452.982h1.255l284.781-692.071ZM858.95-239.089h-1.254L572.917 452.982h1.255L858.95-239.089ZM863.222-239.089h-1.254L577.186 452.982h1.255l284.781-692.071Z" fill="#C8500D" fill-opacity=".6"/><path d="M1374.78-239.089h-272.19L817.809 452.983h272.201l284.77-692.072ZM1075.29-239.089H888.258l-284.78 692.071h187.039l284.773-692.071ZM1461.06-239.089h-76.32l-284.77 692.072h76.32l284.77-692.072Z" fill="#E07F09" fill-opacity=".9"/><path d="M1219.09 452.983h-1.25l112.65-273.756v3.05l-111.4 270.706ZM1223.36 452.982h-1.25l108.38-263.385v3.05l-107.13 260.335ZM1227.73 452.983h-1.25l112.65-273.756v3.05l-111.4 270.706ZM1232 452.982h-1.26l108.39-263.385v3.05L1232 452.982Z" fill="#C8500D" fill-opacity=".6"/><path d="M338.908-239.089h3.564l-404.36 982.491h-3.565l404.361-982.491ZM326.788-239.089h3.565L-74.008 743.402h-3.565l404.361-982.491ZM314.67-239.089h3.565L-86.126 743.402h-3.565L314.67-239.089ZM302.552-239.089h3.564l-404.36 982.491h-3.565l404.361-982.491ZM290.435-239.089h3.564l-404.361 982.491h-3.564l404.361-982.491ZM278.316-239.089h3.564l-404.361 982.491h-3.564l404.361-982.491ZM266.197-239.089h3.565l-404.361 982.491h-3.564l404.36-982.491ZM254.078-239.089h3.564l-404.361 982.491h-3.563l404.36-982.491ZM241.96-239.089h3.564l-404.361 982.491h-3.564L241.96-239.089ZM229.843-239.089h3.564l-404.361 982.491h-3.564l404.361-982.491ZM217.724-239.089h3.564l-404.36 982.491h-3.564l404.36-982.491ZM205.605-239.089h3.564l-404.36 982.491h-3.565l404.361-982.491ZM193.488-239.089h3.564l-404.361 982.491h-3.564l404.361-982.491ZM181.367-239.089h3.565l-404.361 982.491h-3.565l404.361-982.491ZM169.251-239.089h3.565l-404.361 982.491h-3.565l404.361-982.491ZM157.133-239.089h3.564l-404.361 982.491h-3.564l404.361-982.491ZM145.015-239.089h3.564l-404.361 982.491h-3.564l404.361-982.491ZM132.896-239.089h3.565L-267.9 743.402h-3.565l404.361-982.491ZM120.778-239.089h3.564l-404.361 982.491h-3.564l404.361-982.491ZM108.658-239.089h3.565l-404.361 982.491h-3.565l404.361-982.491ZM96.541-239.089h3.565l-404.361 982.491h-3.565L96.541-239.089ZM84.422-239.089h3.564l-404.361 982.491h-3.563l404.36-982.491ZM72.304-239.089h3.564l-404.361 982.491h-3.564l404.36-982.491ZM60.186-239.089h3.564l-404.361 982.491h-3.564l404.36-982.491ZM48.067-239.089h3.565L-352.73 743.402h-3.563l404.36-982.491ZM35.95-239.089h3.563l-404.361 982.491h-3.563l404.36-982.491ZM23.83-239.089h3.565l-404.361 982.491h-3.564L23.83-239.089ZM11.711-239.089h3.564l-404.36 982.491h-3.564l404.36-982.491ZM-.407-239.089h3.564l-404.36 982.491h-3.565L-.408-239.089ZM485.329 38.455h-1.255l-284.78 692.072h1.255l284.78-692.072ZM489.597 38.455h-1.255L203.563 730.527h1.255L489.597 38.455ZM493.866 38.455h-1.255L207.832 730.527h1.255L493.866 38.455ZM498.132 38.455h-1.254l-284.78 692.072h1.255L498.132 38.455ZM502.4 38.455h-1.255l-284.78 692.072h1.256L502.4 38.455ZM506.667 38.455h-1.255l-284.78 692.072h1.256L506.667 38.455ZM510.934 38.455h-1.256L224.899 730.527h1.255l284.78-692.072ZM515.202 38.455h-1.255L229.168 730.527h1.255L515.202 38.455ZM519.47 38.455h-1.256L233.435 730.527h1.255L519.47 38.455ZM523.735 38.455h-1.255L237.701 730.527h1.254l284.78-692.072ZM528.002 38.455h-1.255L241.968 730.527h1.255L528.002 38.455ZM532.271 38.455h-1.255l-284.78 692.072h1.256L532.271 38.455ZM536.539 38.455h-1.255l-284.78 692.072h1.256L536.539 38.455ZM438.391 38.455h-1.255l-284.78 692.072h1.256L438.391 38.455ZM442.658 38.455h-1.255l-284.78 692.072h1.256L442.658 38.455ZM446.925 38.455h-1.255L160.891 730.527h1.255L446.925 38.455ZM451.192 38.455h-1.255l-284.78 692.072h1.255l284.78-692.072ZM455.459 38.455h-1.256L169.424 730.527h1.255l284.78-692.072ZM459.727 38.455h-1.255L173.693 730.527h1.255L459.727 38.455ZM463.995 38.455h-1.255L177.961 730.527h1.255L463.995 38.455ZM468.262 38.455h-1.255L182.228 730.527h1.255L468.262 38.455ZM472.53 38.455h-1.255l-284.78 692.072h1.256L472.53 38.455ZM476.797 38.455h-1.256L190.762 730.527h1.256L476.797 38.455ZM481.064 38.455h-1.256L195.029 730.527h1.255l284.78-692.072Z" fill="#D36611"/><path d="M485.329 38.455h-1.255l-284.78 692.072h1.255l284.78-692.072ZM489.597 38.455h-1.255L203.563 730.527h1.255L489.597 38.455ZM587.745 38.455h-1.254l-284.78 692.072h1.255L587.745 38.455ZM592.013 38.455h-1.255l-284.78 692.072h1.256L592.013 38.455ZM596.28 38.455h-1.255l-284.78 692.072h1.256L596.28 38.455ZM600.55 38.455h-1.256L314.515 730.527h1.255L600.55 38.455ZM604.815 38.455h-1.255L318.781 730.527h1.255L604.815 38.455ZM609.082 38.455h-1.256L323.047 730.527h1.255l284.78-692.072ZM613.35 38.455h-1.255L327.316 730.527h1.254L613.35 38.455ZM617.616 38.455h-1.254L331.583 730.527h1.254L617.616 38.455ZM621.884 38.455h-1.255l-284.78 692.072h1.256L621.884 38.455ZM626.153 38.455h-1.255l-284.78 692.072h1.256L626.153 38.455ZM630.42 38.455h-1.256L344.385 730.527h1.256L630.42 38.455ZM634.687 38.455h-1.256L348.652 730.527h1.255l284.78-692.072ZM638.953 38.455h-1.255L352.919 730.527h1.254l284.78-692.072ZM540.806 38.455h-1.256L254.771 730.527h1.255l284.78-692.072ZM545.075 38.455h-1.256L259.04 730.527h1.255l284.78-692.072ZM549.342 38.455h-1.256L263.307 730.527h1.255l284.78-692.072ZM553.607 38.455h-1.254l-284.78 692.072h1.255L553.607 38.455ZM557.875 38.455h-1.255L271.841 730.527h1.255L557.875 38.455ZM562.142 38.455h-1.255l-284.78 692.072h1.256L562.142 38.455ZM566.411 38.455h-1.255l-284.78 692.072h1.256L566.411 38.455ZM570.679 38.455h-1.256L284.644 730.527h1.256L570.679 38.455ZM574.945 38.455h-1.256L288.91 730.527h1.255l284.78-692.072ZM579.212 38.455h-1.255L293.178 730.527h1.254l284.78-692.072ZM583.478 38.455h-1.255L297.444 730.527h1.255L583.478 38.455Z" fill="#D36611"/><path d="M587.745 38.455h-1.254l-284.78 692.072h1.255L587.745 38.455ZM592.013 38.455h-1.255l-284.78 692.072h1.256L592.013 38.455Z" fill="#D36611"/><g opacity=".6" fill="#C8500D"><path d="M1441.87-661.14h-2.46L879.037 700.662h2.471L1441.87-661.14ZM1450.27-661.14h-2.47L887.431 700.662h2.471L1450.27-661.14ZM1458.67-661.14h-2.47L895.834 700.662h2.464L1458.67-661.14ZM1467.06-661.14h-2.47L904.228 700.662h2.471L1467.06-661.14ZM1475.46-661.14h-2.47L912.622 700.662h2.471L1475.46-661.14ZM1483.86-661.14h-2.47L921.017 700.662h2.472L1483.86-661.14ZM1492.25-661.14h-2.47L929.418 700.662h2.472L1492.25-661.14Z"/></g><g opacity=".6" fill="#C8500D"><path d="M1499.93-661.14h-2.47L937.097 700.662h2.471L1499.93-661.14ZM1508.32-661.14h-2.46L945.491 700.662h2.471L1508.32-661.14ZM1516.73-661.14h-2.47L953.886 700.662h2.472L1516.73-661.14ZM1525.12-661.14h-2.47L962.288 700.662h2.464L1525.12-661.14ZM1533.52-661.14h-2.47L970.683 700.662h2.471L1533.52-661.14ZM1541.92-661.14h-2.47L979.078 700.662h2.471L1541.92-661.14ZM1550.31-661.14h-2.47L987.48 700.662h2.464L1550.31-661.14Z"/></g><path d="M1888.91-239.089h-419.7l-284.78 692.072h419.7l284.78-692.072Z" fill="#E07F09" fill-opacity=".9"/><path opacity=".6" fill-rule="evenodd" clip-rule="evenodd" d="M1319.34 213.674h-1.25l261.81-636.263h1.26l-261.82 636.263Zm4.27 0h-1.25l261.81-636.263h1.26l-261.82 636.263Zm4.27 0h-1.26l261.82-636.263h1.26l-261.82 636.263Zm4.27 0h-1.26l261.82-636.263h1.25l-261.81 636.263Zm4.26 0h-1.25l261.81-636.263h1.26l-261.82 636.263Zm4.27 0h-1.25l261.81-636.263h1.26l-261.82 636.263Zm4.27 0h-1.26l261.82-636.263h1.25l-261.81 636.263Zm4.27 0h-1.26l261.82-636.263h1.25l-261.81 636.263Zm4.26 0h-1.25l261.81-636.263h1.25l-261.81 636.263Zm4.27 0h-1.26l261.82-636.263h1.26l-261.82 636.263Zm4.27 0h-1.26l261.81-636.263h1.26l-261.81 636.263Zm4.27 0h-1.26l261.82-636.263h1.25l-261.81 636.263Zm4.26 0h-1.25l261.81-636.263h1.25l-261.81 636.263Zm4.27 0h-1.26l261.82-636.263h1.25l-261.81 636.263Zm4.27 0h-1.26l261.81-636.263h1.26l-261.81 636.263Zm4.27 0h-1.26l261.82-636.263h1.25l-261.81 636.263Zm4.26 0h-1.25l261.81-636.263h1.25l-261.81 636.263Zm4.27 0h-1.26l261.82-636.263h1.25l-261.81 636.263Zm4.27 0h-1.26l261.81-636.263h1.26l-261.81 636.263Zm4.26 0h-1.25l261.82-636.263h1.25l-261.82 636.263Zm4.27 0h-1.25l261.81-636.263h1.25l-261.81 636.263Zm4.26 0h-1.25l261.82-636.263h1.25l-261.82 636.263Zm4.28 0h-1.26l261.81-636.263h1.26l-261.81 636.263Zm4.26 0h-1.26l261.82-636.263h1.26l-261.82 636.263Zm4.27 0h-1.25l261.81-636.263h1.25l-261.81 636.263Zm4.26 0h-1.25l261.82-636.263h1.25l-261.82 636.263Zm4.27 0h-1.25l261.81-636.263h1.26l-261.82 636.263Zm4.27 0h-1.26l261.82-636.263h1.26l-261.82 636.263Zm4.27 0h-1.25l261.81-636.263h1.25l-261.81 636.263Zm4.26 0h-1.25l261.82-636.263h1.25l-261.82 636.263Zm4.27 0h-1.25l261.81-636.263h1.26l-261.82 636.263Zm4.27 0h-1.26l261.82-636.263h1.26l-261.82 636.263Zm4.27 0h-1.25l261.81-636.263h1.25L1455.9 213.674Zm4.26 0h-1.25l261.81-636.263h1.26l-261.82 636.263Zm4.27 0h-1.25l261.81-636.263h1.26l-261.82 636.263Zm4.27 0h-1.26l261.82-636.263h1.26L1468.7 213.674Zm4.27 0h-1.26l261.82-636.263h1.25l-261.81 636.263Zm4.26 0h-1.25l261.81-636.263h1.26l-261.82 636.263Zm4.27 0h-1.25l261.81-636.263h1.26L1481.5 213.674Zm4.27 0h-1.26l261.82-636.263h1.26l-261.82 636.263Zm4.27 0h-1.26l261.82-636.263h1.25l-261.81 636.263Zm4.26 0h-1.25l261.81-636.263h1.25L1494.3 213.674Zm4.27 0h-1.25l261.81-636.263h1.26l-261.82 636.263Z" fill="#C8500D"/></g></svg>
